src/instagram/instagram-black.svg

<svg xmlns="http://www.w3.org/2000/svg" width="128" height="128"><path fill-rule="evenodd" clip-rule="evenodd" d="M94.771 57.843h-6.964c.507 1.97.807 4.028.807 6.156 0 13.597-11.02 24.616-24.614 24.616-13.594 0-24.614-11.019-24.614-24.616 0-2.128.301-4.186.809-6.156h-6.965v33.849c0 1.697 1.378 3.074 3.08 3.074h55.382c1.702 0 3.08-1.377 3.08-3.074v-33.849zm0-21.537c0-1.698-1.378-3.077-3.08-3.077h-9.229c-1.7 0-3.077 1.378-3.077 3.077v9.232c0 1.698 1.377 3.077 3.077 3.077h9.229c1.702 0 3.08-1.378 3.08-3.077v-9.232zm-30.771 12.309c-8.497 0-15.385 6.887-15.385 15.384 0 8.496 6.887 15.386 15.385 15.386s15.386-6.89 15.386-15.386c0-8.498-6.889-15.384-15.386-15.384m30.771 55.385h-61.542c-5.097 0-9.229-4.134-9.229-9.234v-61.537c0-5.097 4.132-9.229 9.229-9.229h61.542c5.097 0 9.229 4.132 9.229 9.229v61.537c0 5.1-4.132 9.234-9.229 9.234"/></svg>

<?xml version="1.0" encoding="UTF-8" standalone="no"?>
<!-- Created with Inkscape (http://www.inkscape.org/) -->

<svg
   xmlns:dc="http://purl.org/dc/elements/1.1/"
   xmlns:cc="http://creativecommons.org/ns#"
   xmlns:rdf="http://www.w3.org/1999/02/22-rdf-syntax-ns#"
   xmlns:svg="http://www.w3.org/2000/svg"
   xmlns="http://www.w3.org/2000/svg"
   xmlns:inkscape="http://www.inkscape.org/namespaces/inkscape"
   version="1.1"
   width="128"
   height="128"
   id="svg2">
  <metadata
     id="metadata10">
    <rdf:RDF>
      <cc:Work
         rdf:about="">
        <dc:format>image/svg+xml</dc:format>
        <dc:type
           rdf:resource="http://purl.org/dc/dcmitype/StillImage" />
      </cc:Work>
    </rdf:RDF>
  </metadata>
  <defs
     id="defs8" />
  <path
     d="m 94.771,57.843 h -6.964 c 0.507,1.97 0.807,4.028 0.807,6.156 0,13.597 -11.02,24.616 -24.614,24.616 -13.594,0 -24.614,-11.019 -24.614,-24.616 0,-2.128 0.301,-4.186 0.809,-6.156 H 33.23 v 33.849 c 0,1.697 1.378,3.074 3.08,3.074 h 55.382 c 1.702,0 3.08,-1.377 3.08,-3.074 V 57.843 z m 0,-21.537 c 0,-1.698 -1.378,-3.077 -3.08,-3.077 h -9.229 c -1.7,0 -3.077,1.378 -3.077,3.077 v 9.232 c 0,1.698 1.377,3.077 3.077,3.077 h 9.229 c 1.702,0 3.08,-1.378 3.08,-3.077 V 36.306 z M 64,48.615 c -8.497,0 -15.385,6.887 -15.385,15.384 0,8.496 6.887,15.386 15.385,15.386 8.498,0 15.386,-6.89 15.386,-15.386 C 79.386,55.501 72.497,48.615 64,48.615 M 94.771,104 H 33.229 C 28.132,104 24,99.866 24,94.766 V 33.229 C 24,28.132 28.132,24 33.229,24 h 61.542 c 5.097,0 9.229,4.132 9.229,9.229 v 61.537 c 0,5.1 -4.132,9.234 -9.229,9.234"
     inkscape:connector-curvature="0"
     id="path4"
     style="fill-rule:evenodd" />
</svg>
